X:108
T:Old Willie Hunter
R:Reel
C:RONALD COOPER
S:PLAY ORDER: 1,2,3,4  2,3,4,1         ABC TUNE FINDER
M:4/4
L:1/8
K:A
K:A
|:ed|"A"cA (3AAA EAcA|eaga ecAc|"Bm"dB (3BBB FBBc|dBba "E"gfed|!
"A"cA (3AAA EAcA|eaga ecAc|"D"dBba "E"gfed|"A"cA"E"BG "A"A2:|!
(3efg|"A"aA (3AAA ecAc|eaga ecAc|"Bm"bB (3BBB fdBc|dBba "E"gbeg|!
"A"aA (3AAA ecAc|eaga ecAc|"Bm"dBba "E"gfed|"A"cA"E"BG "A"A2 (3efg|!
"A"aA (3AAA ecAc|eaga ecAc|"Bm"bB (3BBB fdBc|dBba "E"gbeg|!
"A"acea "E"gBeg|"D"fAdf "A"eAce|"Bm"dBba "E"gfed|"A"cA"E"BG "A"A2||
